client/src/assets/images/icon-fbf-active.svg

<svg fill="none" height="92" viewBox="0 0 92 92" width="92" xmlns="http://www.w3.org/2000/svg"><g fill="#fff"><path d="m62.2869 71.6381h-32.5789c-.1994 0-.3907-.0792-.5317-.2203-.1411-.141-.2205-.3323-.2205-.5318v-8.1449h1.5v7.393h31.0742v-7.393h1.5v8.1449c-.0002.1979-.0785.3877-.2175.5284s-.3278.221-.5256.2237z"/><path d="m46 68.4711c-7.9967-.0098-15.6631-3.1908-21.3176-8.8454-5.6546-5.6545-8.8357-13.3209-8.8455-21.3177 0-.1995.0792-.3908.2202-.532s.3322-.2207.5318-.2209h58.822c.1995.0002.3907.0797.5317.2209s.2202.3325.2202.532c-.0098 7.9968-3.1906 15.6632-8.8452 21.3177-5.6545 5.6546-13.3209 8.8356-21.3176 8.8454zm-28.6492-29.4081c.1874 7.4742 3.2882 14.5792 8.6407 19.7992 5.3524 5.22 12.533 8.1417 20.0095 8.1417 7.4764 0 14.6568-2.9217 20.0093-8.1417 5.3524-5.22 8.4532-12.325 8.6406-19.7992z"/><path d="m72.2439 39.0629h-52.4871c-.1322-.0003-.2618-.0354-.3762-.1017-.1143-.0663-.2092-.1615-.2751-.2761-.066-.1146-.1007-.2445-.1006-.3766.0001-.1322.035-.2621.1011-.3766.2393-1.3668.915-2.6193 1.926-3.5697 1.011-.9505 2.3029-1.5477 3.6819-1.7022 1.0627-1.921 2.7127-3.4511 4.7082-4.3661 1.9955-.9151 4.2318-1.167 6.3809-.719.9568-2.1392 2.5101-3.9573 4.4739-5.2362 1.9637-1.279 4.2546-1.9646 6.5981-1.9748 3.128-.0089 6.136 1.203 8.384 3.378 1.227-.4981 2.5386-.7538 3.8628-.753 2.7436.0032 5.3746 1.0917 7.3184 3.0278 1.9438 1.9362 3.0426 4.5627 3.0566 7.3062.8807.4548 1.6449 1.1063 2.2332 1.904.5882.7978.9848 1.7203 1.1589 2.6961.0712.1172.1085.2518.1079.3889-.0005.1994-.08.3904-.2212.5312-.1411.1408-.3323.2198-.5317.2198zm-51.5-1.505h50.51c-.2174-.6861-.5822-1.3164-1.0688-1.8467-.4867-.5303-1.0831-.9478-1.7481-1.2232-.1427-.0586-.2639-.1597-.3469-.2896-.0831-.13-.124-.2824-.1172-.4364l.011-.185c0-.071.01-.142.01-.214-.0029-2.3518-.9385-4.6064-2.6016-6.2693-1.663-1.6628-3.9177-2.5981-6.2695-2.6007-1.2845 0-2.5532.282-3.7168.826-.1424.0659-.3021.0857-.4563.0565-.1542-.0293-.2954-.106-.4038-.2196-.9869-1.0417-2.1764-1.8707-3.4954-2.436s-2.7395-.8548-4.1745-.851c-2.1514.0093-4.2496.6687-6.0196 1.8916-1.7699 1.223-3.1288 2.9524-3.8984 4.9614-.0673.1738-.1965.3166-.3625.4013-.1661.0847-.3574.1053-.5376.0578-1.9626-.5435-4.053-.3882-5.9136.4394s-3.3758 2.2761-4.2864 4.0975c-.0601.1186-.1507.2191-.2624.2911-.1118.0721-.2407.1131-.3736.1189-1.0079.0429-1.9783.3947-2.7795 1.0078-.8012.613-1.3945 1.4576-1.6995 2.4192z"/></g></svg>

<svg width="92" height="92" viewBox="0 0 92 92" fill="none" xmlns="http://www.w3.org/2000/svg">
<path d="M62.2869 71.6381H29.708C29.5086 71.6381 29.3173 71.5589 29.1763 71.4178C29.0352 71.2768 28.9558 71.0855 28.9558 70.886V62.7411H30.4558V70.1341H61.53V62.7411H63.03V70.886C63.0298 71.0839 62.9515 71.2737 62.8125 71.4144C62.6735 71.5551 62.4847 71.6354 62.2869 71.6381Z" fill="#fff"/>
<path d="M46 68.4711C38.0033 68.4613 30.3369 65.2803 24.6824 59.6257C19.0278 53.9712 15.8467 46.3048 15.8369 38.308C15.8369 38.1085 15.9161 37.9172 16.0571 37.776C16.1981 37.6348 16.3893 37.5553 16.5889 37.5551H75.4109C75.6104 37.5553 75.8016 37.6348 75.9426 37.776C76.0836 37.9172 76.1628 38.1085 76.1628 38.308C76.153 46.3048 72.9722 53.9712 67.3176 59.6257C61.6631 65.2803 53.9967 68.4613 46 68.4711ZM17.3508 39.063C17.5382 46.5372 20.639 53.6422 25.9915 58.8622C31.3439 64.0822 38.5245 67.0039 46.001 67.0039C53.4774 67.0039 60.6578 64.0822 66.0103 58.8622C71.3627 53.6422 74.4635 46.5372 74.6509 39.063H17.3508Z" fill="#fff"/>
<path d="M72.2439 39.0629H19.7568C19.6246 39.0626 19.495 39.0275 19.3806 38.9612C19.2663 38.8949 19.1714 38.7997 19.1055 38.6851C19.0395 38.5705 19.0048 38.4406 19.0049 38.3085C19.005 38.1763 19.0399 38.0464 19.106 37.9319C19.3453 36.5651 20.021 35.3126 21.032 34.3622C22.043 33.4117 23.3349 32.8145 24.7139 32.66C25.7766 30.739 27.4266 29.2089 29.4221 28.2939C31.4176 27.3788 33.6539 27.1269 35.803 27.5749C36.7598 25.4357 38.3131 23.6176 40.2769 22.3387C42.2406 21.0597 44.5315 20.3741 46.875 20.3639C50.003 20.355 53.011 21.5669 55.259 23.7419C56.486 23.2438 57.7976 22.9881 59.1218 22.9889C61.8654 22.9921 64.4964 24.0806 66.4402 26.0167C68.384 27.9529 69.4828 30.5794 69.4968 33.3229C70.3775 33.7777 71.1417 34.4292 71.73 35.2269C72.3182 36.0247 72.7148 36.9472 72.8889 37.923C72.9601 38.0402 72.9974 38.1748 72.9968 38.3119C72.9963 38.5113 72.9168 38.7023 72.7756 38.8431C72.6345 38.9839 72.4433 39.0629 72.2439 39.0629ZM20.7439 37.5579H71.2539C71.0365 36.8718 70.6717 36.2415 70.1851 35.7112C69.6984 35.1809 69.102 34.7634 68.437 34.488C68.2943 34.4294 68.1731 34.3283 68.0901 34.1984C68.007 34.0684 67.9661 33.916 67.9729 33.762L67.9839 33.577C67.9839 33.506 67.9939 33.435 67.9939 33.363C67.991 31.0112 67.0554 28.7566 65.3923 27.0937C63.7293 25.4309 61.4746 24.4956 59.1228 24.493C57.8383 24.493 56.5696 24.775 55.406 25.319C55.2636 25.3849 55.1039 25.4047 54.9497 25.3755C54.7955 25.3462 54.6543 25.2695 54.5459 25.1559C53.559 24.1142 52.3695 23.2852 51.0505 22.7199C49.7315 22.1546 48.311 21.8651 46.876 21.8689C44.7246 21.8782 42.6264 22.5376 40.8564 23.7605C39.0865 24.9835 37.7276 26.7129 36.958 28.7219C36.8907 28.8957 36.7615 29.0385 36.5955 29.1232C36.4294 29.2079 36.2381 29.2285 36.0579 29.181C34.0953 28.6375 32.0049 28.7928 30.1443 29.6204C28.2837 30.448 26.7685 31.8965 25.8579 33.7179C25.7978 33.8365 25.7072 33.937 25.5955 34.009C25.4837 34.0811 25.3548 34.1221 25.2219 34.1279C24.214 34.1708 23.2436 34.5226 22.4424 35.1357C21.6412 35.7487 21.0479 36.5933 20.7429 37.5549L20.7439 37.5579Z" fill="#fff"/>
</svg>
